;FLAVOR:Marlin
;TIME:9158
;Filament used: 13.6821m
;Layer height: 0.2
;MINX:7.278
;MINY:6.747
;MINZ:0.2
;MAXX:210.77
;MAXY:210.239
;MAXZ:40.8
;ZOFFSETPROCESSED
;Generated with Cura_SteamEngine main
M140 S60
M105
M190 S60
M104 S210
M105
M109 S210
M82 ;absolute extrusion mode
; Ender 3 Custom Start G-code
G92 E0 ; Reset Extruder
G28G29 ; Home all axes
G1 Z2.0 F3000 ; Move Z Axis up little to prevent scratching of Heat Bed
G1 X0.1 Y20 Z0.3 F5000.0 ; Move to start position
G1 X0.1 Y200.0 Z0.3 F1500.0 E15 ; Draw the first line
G1 X0.4 Y200.0 Z0.3 F5000.0 ; Move to side a little
G1 X0.4 Y20 Z0.3 F1500.0 E30 ; Draw the second line
G92 E0 ; Reset Extruder
G1 Z2.0 F3000 ; Move Z Axis up little to prevent scratching of Heat Bed
G1 X5 Y20 Z0.3 F5000.0 ; Move over to prevent blob squish
G92 E0
G92 E0
G1 F4200 E-11
;LAYER_COUNT:203
;LAYER:0
M107
G1 F600 Z0.2 ;adjusted by z offset
G92 Z0.4 ;consider this the original z before offset
G0 F6000 X9.499 Y12.504 Z0.4
G1 F600 Z0.4
G0 F6000 X7.278 Y17.609
;TYPE:SKIRT
G1 F600 Z0.2
G1 F4200 E0
G1 F1200 X7.345 Y16.833 E0.05181
G1 X7.492 Y16.067 E0.1037
G1 X7.716 Y15.32 E0.15557
G1 X8.016 Y14.601 E0.2074
G1 X8.388 Y13.916 E0.25925
G1 X8.828 Y13.272 E0.31113
G1 X9.499 Y12.504 E0.37897
G1 X13.035 Y8.968 E0.71162
G1 X13.614 Y8.446 E0.76347
G1 X14.243 Y7.986 E0.81531
G1 X14.916 Y7.592 E0.86719
G1 X15.626 Y7.27 E0.91905
G1 X16.365 Y7.022 E0.9709
G1 X17.125 Y6.851 E1.02272
G1 X17.899 Y6.759 E1.07457
G1 X18.679 Y6.747 E1.12646
G1 X19.455 Y6.814 E1.17827
G1 X20.221 Y6.961 E1.23016
G1 X20.967 Y7.185 E1.28197
G1 X21.687 Y7.485 E1.33385
G1 X22.372 Y7.857 E1.38571
G1 X23.015 Y8.297 E1.43753
G1 X23.783 Y8.968 E1.50537
G1 X29.092 Y14.278 E2.00486
G1 X29.196 Y14.349 E2.01324
G1 X29.964 Y15.02 E2.08108
G1 X197.548 Y182.603 E17.8463
G1 X198.07 Y183.182 E17.89816
G1 X198.269 Y183.454 E17.92058
G1 X208.549 Y193.734 E18.88766
G1 X209.071 Y194.313 E18.93952
G1 X209.531 Y194.942 E18.99135
G1 X209.925 Y195.615 E19.04323
G1 X210.247 Y196.325 E19.09509
G1 X210.495 Y197.064 E19.14694
G1 X210.666 Y197.824 E19.19876
G1 X210.758 Y198.598 E19.25061
G1 X210.77 Y199.378 E19.3025
G1 X210.703 Y200.154 E19.35431
G1 X210.556 Y200.92 E19.4062
G1 X210.332 Y201.666 E19.45801
G1 X210.032 Y202.386 E19.5099
G1 X209.66 Y203.071 E19.56175
G1 X209.22 Y203.714 E19.61358
G1 X208.549 Y204.482 E19.68142
G1 X205.013 Y208.018 E20.01406
G1 X204.434 Y208.54 E20.06592
G1 X203.805 Y209 E20.11775
G1 X203.132 Y209.394 E20.16963
G1 X202.422 Y209.716 E20.22149
G1 X201.683 Y209.964 E20.27334
G1 X200.923 Y210.135 E20.32516
G1 X200.149 Y210.227 E20.37701
G1 X199.369 Y210.239 E20.4289
G1 X198.593 Y210.172 E20.48071
G1 X197.827 Y210.025 E20.5326
G1 X197.081 Y209.801 E20.58441
G1 X196.361 Y209.501 E20.6363
G1 X195.676 Y209.129 E20.68815
G1 X195.033 Y208.689 E20.73998
G1 X194.265 Y208.018 E20.80782
G1 X184.007 Y197.76 E21.77283
G1 X183.902 Y197.688 E21.7813
G1 X183.134 Y197.017 E21.84914
G1 X15.551 Y29.433 E37.61436
G1 X15.029 Y28.854 E37.66622
G1 X14.831 Y28.583 E37.68855
G1 X9.499 Y23.252 E38.1901
G1 X8.977 Y22.674 E38.24191
G1 X8.517 Y22.045 E38.29375
G1 X8.124 Y21.372 E38.34559
G1 X7.801 Y20.662 E38.39747
G1 X7.553 Y19.923 E38.44933
G1 X7.382 Y19.162 E38.50121
G1 X7.29 Y18.388 E38.55306
G1 X7.278 Y17.609 E38.60489
G0 F6000 X8.075 Y18.056
G1 F1200 X8.096 Y17.319 E38.65393
G1 X8.196 Y16.588 E38.70301
G1 X8.375 Y15.873 E38.75204
G1 X8.631 Y15.181 E38.80112
G1 X8.959 Y14.521 E38.85015
G1 X9.357 Y13.901 E38.89916
G1 X10.065 Y13.07 E38.97178
G1 X13.601 Y9.534 E39.30442
G1 X14.15 Y9.041 E39.35351
G1 X14.748 Y8.611 E39.4025
G1 X15.39 Y8.249 E39.45153
G1 X16.068 Y7.958 E39.50061
G1 X16.773 Y7.742 E39.54966
G1 X17.497 Y7.603 E39.5987
G1 X18.232 Y7.544 E39.64775
G1 X18.969 Y7.565 E39.69679
G1 X19.699 Y7.666 E39.74581
G1 X20.415 Y7.844 E39.79489
G1 X21.106 Y8.1 E39.84391
G1 X21.766 Y8.429 E39.89297
G1 X22.387 Y8.827 E39.94203
G1 X23.218 Y9.534 E40.01461
G1 X28.552 Y14.869 E40.51645
G1 X29.398 Y15.586 E40.59021
G1 X196.982 Y183.169 E56.35544
G1 X197.475 Y183.717 E56.40448
G1 X197.666 Y183.983 E56.42626
G1 X207.983 Y194.3 E57.39682
G1 X208.476 Y194.849 E57.4459
G1 X208.906 Y195.447 E57.4949
G1 X209.268 Y196.089 E57.54393
G1 X209.559 Y196.767 E57.59301
G1 X209.775 Y197.472 E57.64205
G1 X209.914 Y198.196 E57.69109
G1 X209.973 Y198.931 E57.74014
G1 X209.952 Y199.668 E57.78919
G1 X209.851 Y200.398 E57.83821
G1 X209.673 Y201.114 E57.88729
G1 X209.417 Y201.805 E57.93631
G1 X209.088 Y202.465 E57.98536
G1 X208.69 Y203.086 E58.03443
G1 X207.983 Y203.916 E58.10696
G1 X204.447 Y207.452 E58.4396
G1 X203.898 Y207.945 E58.48868
G1 X203.3 Y208.375 E58.53768
G1 X202.658 Y208.737 E58.58671
G1 X201.98 Y209.028 E58.63579
G1 X201.275 Y209.244 E58.68484
G1 X200.551 Y209.383 E58.73388
G1 X199.816 Y209.442 E58.78292
G1 X199.079 Y209.421 E58.83197
G1 X198.349 Y209.32 E58.88099
G1 X197.633 Y209.142 E58.93007
G1 X196.942 Y208.886 E58.97909
G1 X196.282 Y208.557 E59.02815
G1 X195.661 Y208.159 E59.07721
G1 X194.831 Y207.452 E59.14974
G1 X184.549 Y197.17 E60.117
G1 X183.7 Y196.451 E60.19101
G1 X16.117 Y28.867 E75.95624
G1 X15.624 Y28.318 E76.00532
G1 X15.437 Y28.059 E76.02657
G1 X10.065 Y22.687 E76.53194
G1 X9.573 Y22.138 E76.58098
G1 X9.143 Y21.539 E76.63003
G1 X8.78 Y20.897 E76.67909
G1 X8.489 Y20.22 E76.7281
G1 X8.273 Y19.515 E76.77715
G1 X8.135 Y18.791 E76.82618
G1 X8.075 Y18.056 E76.87524
G0 F6000 X8.875 Y17.74
G1 F1200 X8.93 Y17.05 E76.92128
G1 X9.065 Y16.371 E76.96733
G1 X9.278 Y15.712 E77.0134
G1 X9.565 Y15.081 E77.05951
G1 X9.922 Y14.488 E77.10556
G1 X10.346 Y13.94 E77.15165
G1 X10.63 Y13.635 E77.17937
G1 X14.166 Y10.099 E77.51201
G1 X14.683 Y9.639 E77.55805
G1 X15.25 Y9.241 E77.60413
G1 X15.859 Y8.911 E77.65021
G1 X16.502 Y8.653 E77.69629
G1 X17.17 Y8.471 E77.74235
G1 X17.855 Y8.368 E77.78843
G1 X18.547 Y8.344 E77.83449
G1 X19.237 Y8.399 E77.88053
G1 X19.917 Y8.534 E77.92665
G1 X20.576 Y8.747 E77.97272
G1 X21.206 Y9.034 E78.01877
G1 X21.799 Y9.391 E78.06481
G1 X22.347 Y9.815 E78.1109
G1 X22.652 Y10.1 E78.13867
G1 X28.042 Y15.491 E78.64578
G1 X28.528 Y15.867 E78.68665
G1 X28.833 Y16.151 E78.71437
G1 X196.417 Y183.734 E94.4796
G1 X196.877 Y184.251 E94.52563
G1 X197.049 Y184.496 E94.54555
G1 X207.418 Y194.865 E95.521
G1 X207.878 Y195.382 E95.56703
G1 X208.276 Y195.949 E95.61311
G1 X208.606 Y196.558 E95.65919
G1 X208.864 Y197.201 E95.70528
G1 X209.046 Y197.869 E95.75133
G1 X209.149 Y198.554 E95.79741
G1 X209.173 Y199.246 E95.84347
G1 X209.118 Y199.936 E95.88951
G1 X208.983 Y200.616 E95.93563
G1 X208.77 Y201.275 E95.9817
G1 X208.483 Y201.905 E96.02775
G1 X208.126 Y202.498 E96.0738
G1 X207.702 Y203.046 E96.11989
G1 X207.418 Y203.351 E96.14761
G1 X203.882 Y206.887 E96.48025
G1 X203.365 Y207.347 E96.52629
G1 X202.798 Y207.745 E96.57237
G1 X202.189 Y208.075 E96.61844
G1 X201.546 Y208.333 E96.66453
G1 X200.878 Y208.515 E96.71059
G1 X200.193 Y208.618 E96.75667
G1 X199.501 Y208.642 E96.80272
G1 X198.811 Y208.587 E96.84877
G1 X198.131 Y208.452 E96.89489
G1 X197.472 Y208.239 E96.94096
G1 X196.842 Y207.952 E96.98701
G1 X196.249 Y207.595 E97.03305
G1 X195.701 Y207.171 E97.07914
G1 X195.396 Y206.887 E97.10686
G1 X185.052 Y196.543 E98.07996
G1 X184.57 Y196.17 E98.12051
G1 X184.265 Y195.886 E98.14823
G1 X16.682 Y28.302 E113.91346
G1 X16.222 Y27.784 E113.95954
G1 X16.049 Y27.538 E113.97954
G1 X10.631 Y22.121 E114.48919
G1 X10.17 Y21.604 E114.53527
G1 X9.772 Y21.037 E114.58135
G1 X9.442 Y20.428 E114.62742
G1 X9.184 Y19.786 E114.67345
G1 X9.002 Y19.117 E114.71957
G1 X8.899 Y18.433 E114.76558
G1 X8.875 Y17.74 E114.81171
G0 F6000 X9.677 Y18.092
G1 F1200 X9.691 Y17.447 E114.85462
G1 X9.784 Y16.809 E114.89751
G1 X9.955 Y16.188 E114.94036
G1 X10.202 Y15.592 E114.98328
G1 X10.521 Y15.032 E115.02615
G1 X10.906 Y14.515 E115.06903
G1 X11.196 Y14.201 E115.09746
G1 X14.732 Y10.665 E115.4301
G1 X15.215 Y10.238 E115.47299
G1 X15.748 Y9.875 E115.51589
G1 X16.321 Y9.58 E115.55876
G1 X16.926 Y9.358 E115.60162
G1 X17.554 Y9.213 E115.6445
G1 X18.195 Y9.146 E115.68737
G1 X18.84 Y9.16 E115.73029
G1 X19.478 Y9.253 E115.77317
G1 X20.099 Y9.424 E115.81602
G1 X20.695 Y9.671 E115.85894
G1 X21.255 Y9.99 E115.90181
G1 X21.772 Y10.376 E115.94473
G1 X22.086 Y10.665 E115.97311
G1 X27.539 Y16.119 E116.48615
G1 X27.953 Y16.428 E116.52051
G1 X28.267 Y16.717 E116.5489
G1 X195.851 Y184.3 E132.31413
G1 X196.278 Y184.783 E132.35701
G1 X196.436 Y185.015 E132.37568
G1 X206.852 Y195.431 E133.35556
G1 X207.279 Y195.914 E133.39844
G1 X207.642 Y196.447 E133.44134
G1 X207.937 Y197.02 E133.48421
G1 X208.159 Y197.625 E133.52708
G1 X208.304 Y198.253 E133.56995
G1 X208.371 Y198.894 E133.61282
G1 X208.357 Y199.539 E133.65574
G1 X208.264 Y200.177 E133.69863
G1 X208.093 Y200.798 E133.74147
G1 X207.846 Y201.394 E133.78439
G1 X207.527 Y201.954 E133.82726
G1 X207.141 Y202.471 E133.87018
G1 X206.852 Y202.785 E133.89857
G1 X203.316 Y206.321 E134.23121
G1 X202.833 Y206.748 E134.2741
G1 X202.3 Y207.111 E134.31699
G1 X201.727 Y207.406 E134.35987
G1 X201.122 Y207.628 E134.40273
G1 X200.494 Y207.773 E134.44561
G1 X199.853 Y207.84 E134.48848
G1 X199.208 Y207.826 E134.5314
G1 X198.57 Y207.733 E134.57428
G1 X197.949 Y207.562 E134.61713
G1 X197.353 Y207.315 E134.66005
G1 X196.793 Y206.996 E134.70292
G1 X196.276 Y206.61 E134.74584
G1 X195.962 Y206.321 E134.77422
G1 X185.559 Y195.918 E135.75287
G1 X185.145 Y195.609 E135.78724
G1 X184.831 Y195.32 E135.81563
G1 X17.248 Y27.736 E151.58085
G1 X16.821 Y27.253 E151.62374
G1 X16.663 Y27.021 E151.64241
G1 X11.196 Y21.555 E152.15667
G1 X10.77 Y21.072 E152.19951
G1 X10.406 Y20.54 E152.24239
G1 X10.111 Y19.967 E152.28526
G1 X9.889 Y19.361 E152.32819
G1 X9.744 Y18.733 E152.37106
G1 X9.677 Y18.092 E152.41393
G0 F6000 X10.474 Y17.774
G1 F1200 X10.528 Y17.183 E152.45341
G1 X10.661 Y16.605 E152.49286
G1 X10.87 Y16.051 E152.53225
G1 X11.153 Y15.529 E152.57175
G1 X11.502 Y15.05 E152.61117
G1 X11.762 Y14.767 E152.63674
G1 X15.298 Y11.231 E152.96938
G1 X15.744 Y10.841 E153.00879
G1 X16.239 Y10.514 E153.04826
G1 X16.774 Y10.257 E153.08774
G1 X17.338 Y10.074 E153.12718
G1 X17.921 Y9.969 E153.16659
G1 X18.514 Y9.943 E153.20607
G1 X19.104 Y9.997 E153.24548
G1 X19.682 Y10.13 E153.28494
G1 X20.237 Y10.34 E153.32441
G1 X20.758 Y10.622 E153.36382
G1 X21.237 Y10.971 E153.40324
G1 X21.521 Y11.231 E153.42885
G1 X27.028 Y16.739 E153.94697
G1 X27.418 Y17.023 E153.97906
G1 X27.701 Y17.283 E154.00462
G1 X195.285 Y184.866 E169.76985
G1 X195.675 Y185.312 E169.80926
G1 X195.819 Y185.53 E169.82664
G1 X206.286 Y195.997 E170.81131
G1 X206.676 Y196.443 E170.85072
G1 X207.003 Y196.938 E170.89019
G1 X207.26 Y197.473 E170.92967
G1 X207.443 Y198.037 E170.96911
G1 X207.548 Y198.62 E171.00852
G1 X207.574 Y199.213 E171.048
G1 X207.52 Y199.803 E171.08741
G1 X207.387 Y200.381 E171.12687
G1 X207.177 Y200.936 E171.16634
G1 X206.895 Y201.457 E171.20575
G1 X206.546 Y201.936 E171.24517
G1 X206.286 Y202.219 E171.27073
G1 X202.75 Y205.755 E171.60338
G1 X202.304 Y206.145 E171.64279
G1 X201.809 Y206.472 E171.68225
G1 X201.274 Y206.729 E171.72174
G1 X200.71 Y206.912 E171.76118
G1 X200.127 Y207.017 E171.80058
G1 X199.534 Y207.043 E171.84007
G1 X198.944 Y206.989 E171.87948
G1 X198.366 Y206.856 E171.91893
G1 X197.811 Y206.646 E171.95841
G1 X197.29 Y206.364 E171.99781
G1 X196.811 Y206.015 E172.03724
G1 X196.528 Y205.755 E172.0628
G1 X186.074 Y195.301 E173.04625
G1 X185.68 Y195.014 E173.07868
G1 X185.397 Y194.754 E173.10424
G1 X17.814 Y27.17 E188.86947
G1 X17.424 Y26.724 E188.90888
G1 X17.282 Y26.509 E188.92602
G1 X11.762 Y20.99 E189.44526
G1 X11.372 Y20.543 E189.48472
G1 X11.045 Y20.048 E189.52418
G1 X10.788 Y19.514 E189.56361
G1 X10.605 Y18.95 E189.60305
G1 X10.5 Y18.366 E189.64252
G1 X10.474 Y17.774 E189.68194
G0 F6000 X11.276 Y18.022
G1 F1200 X11.294 Y17.486 E189.71761
G1 X11.392 Y16.959 E189.75327
G1 X11.568 Y16.452 E189.78897
G1 X11.816 Y15.977 E189.82461
G1 X12.133 Y15.543 E189.86036
G1 X12.327 Y15.332 E189.87943
G1 X15.863 Y11.796 E190.21208
G1 X16.27 Y11.447 E190.24774
G1 X16.724 Y11.161 E190.28343
G1 X17.215 Y10.946 E190.31909
G1 X17.733 Y10.806 E190.35478
G1 X18.266 Y10.745 E190.39047
G1 X18.801 Y10.763 E190.42608
G1 X19.329 Y10.861 E190.4618
G1 X19.836 Y11.037 E190.4975
G1 X20.311 Y11.285 E190.53315
G1 X20.744 Y11.602 E190.56884
G1 X20.955 Y11.797 E190.58795
G1 X26.5 Y17.343 E191.10964
G1 X26.925 Y17.654 E191.14467
G1 X27.136 Y17.848 E191.16374
G1 X194.72 Y185.431 E206.92897
G1 X195.069 Y185.838 E206.96463
G1 X195.192 Y186.033 E206.97997
G1 X205.721 Y196.562 E207.97047
G1 X206.07 Y196.969 E208.00614
G1 X206.356 Y197.423 E208.04183
G1 X206.571 Y197.914 E208.07749
G1 X206.711 Y198.432 E208.11318
G1 X206.772 Y198.965 E208.14887
G1 X206.754 Y199.5 E208.18447
G1 X206.656 Y200.028 E208.2202
G1 X206.48 Y200.535 E208.2559
G1 X206.232 Y201.01 E208.29154
G1 X205.915 Y201.443 E208.32724
G1 X205.721 Y201.654 E208.34631
G1 X202.185 Y205.19 E208.67895
G1 X201.778 Y205.539 E208.71462
G1 X201.324 Y205.825 E208.75031
G1 X200.833 Y206.04 E208.78596
G1 X200.315 Y206.18 E208.82166
G1 X199.782 Y206.241 E208.85734
G1 X199.247 Y206.223 E208.89295
G1 X198.719 Y206.125 E208.92868
G1 X198.212 Y205.949 E208.96438
G1 X197.737 Y205.701 E209.00002
G1 X197.304 Y205.384 E209.03572
G1 X197.093 Y205.19 E209.05478
G1 X186.595 Y194.692 E210.04237
G1 X186.173 Y194.383 E210.07716
G1 X185.962 Y194.189 E210.09623
G1 X18.379 Y26.605 E225.86146
G1 X18.029 Y26.198 E225.89717
G1 X17.904 Y25.999 E225.9128
G1 X12.328 Y20.424 E226.43731
G1 X11.978 Y20.017 E226.47302
G1 X11.692 Y19.564 E226.50865
G1 X11.477 Y19.072 E226.54437
G1 X11.337 Y18.555 E226.58
G1 X11.276 Y18.022 E226.61568
G0 F6000 X12.078 Y17.71
G1 F1200 X12.146 Y17.242 E226.64714
G1 X12.292 Y16.793 E226.67855
G1 X12.511 Y16.374 E226.71
G1 X12.893 Y15.898 E226.7506
G1 X16.429 Y12.362 E227.08324
G1 X16.791 Y12.057 E227.11473
G1 X17.198 Y11.817 E227.14616
G1 X17.64 Y11.65 E227.17759
G1 X18.104 Y11.559 E227.20905
G1 X18.577 Y11.547 E227.24052
G1 X19.045 Y11.615 E227.27198
G1 X19.495 Y11.761 E227.30345
G1 X19.913 Y11.981 E227.33487
G1 X20.389 Y12.362 E227.37543
G1 X26.02 Y17.994 E227.90521
G1 X26.094 Y18.033 E227.91077
G1 X26.57 Y18.414 E227.95133
G1 X194.154 Y185.997 E243.71656
G1 X194.459 Y186.358 E243.74799
G1 X194.565 Y186.538 E243.76189
G1 X205.155 Y197.128 E244.75813
G1 X205.46 Y197.49 E244.78962
G1 X205.7 Y197.897 E244.82105
G1 X205.867 Y198.339 E244.85248
G1 X205.958 Y198.803 E244.88393
G1 X205.97 Y199.276 E244.91541
G1 X205.902 Y199.744 E244.94687
G1 X205.756 Y200.194 E244.97834
G1 X205.536 Y200.612 E245.00976
G1 X205.155 Y201.088 E245.05031
G1 X201.619 Y204.624 E245.38296
G1 X201.257 Y204.929 E245.41445
G1 X200.85 Y205.169 E245.44588
G1 X200.408 Y205.336 E245.47731
G1 X199.944 Y205.427 E245.50876
G1 X199.471 Y205.439 E245.54024
G1 X199.003 Y205.371 E245.57169
G1 X198.553 Y205.225 E245.60316
G1 X198.135 Y205.005 E245.63459
G1 X197.659 Y204.624 E245.67514
G1 X187.078 Y194.043 E246.67054
G1 X187.004 Y194.004 E246.6761
G1 X186.528 Y193.623 E246.71666
G1 X18.945 Y26.039 E262.48189
G1 X18.64 Y25.677 E262.51338
G1 X18.535 Y25.499 E262.52712
G1 X12.893 Y19.858 E263.05784
G1 X12.588 Y19.497 E263.08928
G1 X12.348 Y19.089 E263.12077
G1 X12.181 Y18.647 E263.1522
G1 X12.09 Y18.183 E263.18365
G1 X12.078 Y17.71 E263.21513
G0 F6000 X12.873 Y17.848
G1 F1200 X12.919 Y17.451 E263.24171
G1 X13.043 Y17.072 E263.26824
G1 X13.24 Y16.724 E263.29484
G1 X13.459 Y16.464 E263.31745
G1 X16.995 Y12.928 E263.6501
G1 X17.304 Y12.675 E263.67666
G1 X17.657 Y12.489 E263.7032
G1 X18.041 Y12.376 E263.72983
G1 X18.439 Y12.342 E263.7564
G1 X18.836 Y12.388 E263.78299
G1 X19.216 Y12.512 E263.80958
G1 X19.563 Y12.709 E263.83612
G1 X19.823 Y12.928 E263.85873
G1 X25.538 Y18.644 E264.39641
G1 X25.744 Y18.761 E264.41217
G1 X26.004 Y18.98 E264.43478
G1 X193.588 Y186.563 E280.20001
G1 X193.841 Y186.872 E280.22658
G1 X193.923 Y187.028 E280.2383
G1 X204.589 Y197.694 E281.24169
G1 X204.842 Y198.003 E281.26826
G1 X205.028 Y198.356 E281.2948
G1 X205.141 Y198.74 E281.32143
G1 X205.175 Y199.138 E281.348
G1 X205.129 Y199.535 E281.37458
G1 X205.005 Y199.915 E281.40117
G1 X204.808 Y200.262 E281.42772
G1 X204.589 Y200.522 E281.45033
G1 X201.053 Y204.058 E281.78297
