;FLAVOR:Marlin
;TIME:1623
;Filament used: 1.8797m
;Layer height: 0.2
;MINX:86.402
;MINY:93.9
;MINZ:0.2
;MAXX:133.598
;MAXY:139.6
;MAXZ:12.2
;ZOFFSETPROCESSED
;Generated with Cura_SteamEngine main
M140 S60
M105
M190 S60
M104 S210
M105
M109 S210
M82 ;absolute extrusion mode
; Ender 3 Custom Start G-code
G92 E0 ; Reset Extruder
G28G29 ; Home all axes
G1 Z2.0 F3000 ; Move Z Axis up little to prevent scratching of Heat Bed
G1 X0.1 Y20 Z0.3 F5000.0 ; Move to start position
G1 X0.1 Y200.0 Z0.3 F1500.0 E15 ; Draw the first line
G1 X0.4 Y200.0 Z0.3 F5000.0 ; Move to side a little
G1 X0.4 Y20 Z0.3 F1500.0 E30 ; Draw the second line
G92 E0 ; Reset Extruder
G1 Z2.0 F3000 ; Move Z Axis up little to prevent scratching of Heat Bed
G1 X5 Y20 Z0.3 F5000.0 ; Move over to prevent blob squish
G92 E0
G92 E0
G1 F4200 E-11
;LAYER_COUNT:60
;LAYER:0
M107
G1 F600 Z0.2 ;adjusted by z offset
G92 Z0.4 ;consider this the original z before offset
G0 F6000 X89.739 Y101.439 Z0.4
G1 F600 Z0.4
G0 F6000 X87.319 Y107
;TYPE:SKIRT
G1 F600 Z0.2
G1 F4200 E0
G1 F1200 X87.359 Y106.222 E0.05182
G1 X87.478 Y105.451 E0.10372
G1 X87.676 Y104.697 E0.15557
G1 X87.95 Y103.968 E0.20738
G1 X88.297 Y103.27 E0.25923
G1 X88.714 Y102.611 E0.31111
G1 X89.197 Y101.999 E0.36297
G1 X89.739 Y101.439 E0.41481
G1 X90.336 Y100.937 E0.4667
G1 X90.981 Y100.5 E0.51852
G1 X91.667 Y100.131 E0.57034
G1 X92.388 Y99.834 E0.62221
G1 X93.136 Y99.612 E0.67411
G1 X93.902 Y99.468 E0.72596
G1 X94.919 Y99.4 E0.79376
G1 X106.13 Y99.4 E1.53952
G1 X107.854 Y97.03 E1.73447
G1 X108.344 Y96.424 E1.78631
G1 X108.893 Y95.871 E1.83815
G1 X109.497 Y95.378 E1.89001
G1 X110.148 Y94.949 E1.94187
G1 X110.839 Y94.589 E1.9937
G1 X111.564 Y94.301 E2.04559
G1 X112.314 Y94.089 E2.09744
G1 X113.082 Y93.956 E2.14929
G1 X114 Y93.9 E2.21047
G1 X125.081 Y93.9 E2.94758
G1 X125.859 Y93.94 E2.9994
G1 X126.63 Y94.059 E3.05129
G1 X127.384 Y94.257 E3.10315
G1 X128.113 Y94.531 E3.15495
G1 X128.811 Y94.878 E3.20681
G1 X129.47 Y95.295 E3.25868
G1 X130.082 Y95.778 E3.31054
G1 X130.642 Y96.32 E3.36239
G1 X131.144 Y96.917 E3.41427
G1 X131.581 Y97.562 E3.4661
G1 X131.95 Y98.248 E3.51791
G1 X132.247 Y98.969 E3.56978
G1 X132.469 Y99.717 E3.62169
G1 X132.613 Y100.483 E3.67353
G1 X132.681 Y101.5 E3.74134
G1 X132.681 Y106.5 E4.07394
G1 X132.641 Y107.278 E4.12576
G1 X132.522 Y108.049 E4.17765
G1 X132.324 Y108.803 E4.22951
G1 X132.05 Y109.532 E4.28132
G1 X131.817 Y110.001 E4.31615
G1 X131.95 Y110.248 E4.33481
G1 X132.247 Y110.969 E4.38668
G1 X132.469 Y111.717 E4.43859
G1 X132.613 Y112.483 E4.49043
G1 X132.681 Y113.5 E4.55823
G1 X132.681 Y118.5 E4.89084
G1 X132.641 Y119.278 E4.94266
G1 X132.522 Y120.049 E4.99455
G1 X132.415 Y120.455 E5.02248
G1 X132.569 Y120.812 E5.04834
G1 X132.783 Y121.361 E5.08754
G1 X132.912 Y121.733 E5.11373
G1 X133.102 Y122.357 E5.15712
G1 X133.175 Y122.631 E5.17598
G1 X133.312 Y123.218 E5.21608
G1 X133.395 Y123.648 E5.24521
G1 X133.441 Y123.931 E5.26428
G1 X133.519 Y124.531 E5.30453
G1 X133.554 Y124.904 E5.32945
G1 X133.591 Y125.533 E5.37137
G1 X133.598 Y126.192 E5.41521
G1 X133.591 Y126.477 E5.43417
G1 X133.554 Y127.109 E5.47628
G1 X133.516 Y127.499 E5.50235
G1 X133.434 Y128.112 E5.54349
G1 X133.387 Y128.393 E5.56244
G1 X133.262 Y129.011 E5.60438
G1 X133.163 Y129.419 E5.63231
G1 X132.995 Y130.009 E5.67312
G1 X132.781 Y130.646 E5.71782
G1 X132.552 Y131.231 E5.75961
G1 X132.296 Y131.809 E5.80166
G1 X132.171 Y132.067 E5.82073
G1 X131.877 Y132.625 E5.86269
G1 X131.545 Y133.189 E5.90622
G1 X131.3 Y133.567 E5.93618
G1 X130.967 Y134.04 E5.97466
G1 X130.568 Y134.558 E6.01816
G1 X130.157 Y135.042 E6.0604
G1 X129.969 Y135.249 E6.079
G1 X129.511 Y135.719 E6.12265
G1 X129.055 Y136.146 E6.16421
G1 X128.521 Y136.599 E6.21079
G1 X128.003 Y136.994 E6.25412
G1 X127.529 Y137.324 E6.29254
G1 X127.181 Y137.548 E6.32007
G1 X126.648 Y137.863 E6.36126
G1 X126.049 Y138.18 E6.40634
G1 X125.448 Y138.459 E6.45041
G1 X124.898 Y138.685 E6.48997
G1 X124.273 Y138.91 E6.53415
G1 X123.643 Y139.102 E6.57797
G1 X123.369 Y139.175 E6.59683
G1 X122.775 Y139.313 E6.63739
G1 X122.356 Y139.394 E6.66578
G1 X122.074 Y139.44 E6.68479
G1 X121.461 Y139.52 E6.72591
G1 X121.098 Y139.554 E6.75016
G1 X120.47 Y139.591 E6.79201
G1 X120 Y139.6 E6.82328
G1 X99.995 Y139.6 E8.15402
G1 X99.523 Y139.591 E8.18542
G1 X98.892 Y139.554 E8.22747
G1 X98.496 Y139.516 E8.25393
G1 X97.888 Y139.434 E8.29474
G1 X97.607 Y139.387 E8.31369
G1 X96.989 Y139.262 E8.35564
G1 X96.581 Y139.163 E8.38356
G1 X95.991 Y138.995 E8.42437
G1 X95.354 Y138.781 E8.46907
G1 X94.766 Y138.551 E8.51107
G1 X94.19 Y138.295 E8.553
G1 X93.934 Y138.171 E8.57192
G1 X93.365 Y137.871 E8.61471
G1 X92.81 Y137.544 E8.65756
G1 X92.437 Y137.303 E8.6871
G1 X92.202 Y137.141 E8.70609
G1 X91.733 Y136.797 E8.74478
G1 X91.237 Y136.399 E8.78708
G1 X90.942 Y136.143 E8.81306
G1 X90.473 Y135.703 E8.85584
G1 X90.049 Y135.268 E8.89625
G1 X89.593 Y134.754 E8.94196
G1 X89.175 Y134.231 E8.98649
G1 X89.006 Y134.003 E9.00537
G1 X88.676 Y133.529 E9.04379
G1 X88.452 Y133.181 E9.07132
G1 X88.137 Y132.648 E9.11251
G1 X87.82 Y132.049 E9.15759
G1 X87.542 Y131.452 E9.2014
G1 X87.431 Y131.19 E9.22032
G1 X87.212 Y130.624 E9.26069
G1 X87.09 Y130.273 E9.28541
G1 X86.898 Y129.643 E9.32922
G1 X86.825 Y129.369 E9.34809
G1 X86.687 Y128.775 E9.38865
G1 X86.606 Y128.356 E9.41704
G1 X86.56 Y128.074 E9.43605
G1 X86.48 Y127.461 E9.47717
G1 X86.446 Y127.098 E9.50142
G1 X86.409 Y126.467 E9.54347
G1 X86.402 Y125.808 E9.58731
G1 X86.409 Y125.523 E9.60627
G1 X86.446 Y124.891 E9.64838
G1 X86.484 Y124.501 E9.67445
G1 X86.566 Y123.888 E9.71559
G1 X86.613 Y123.607 E9.73454
G1 X86.738 Y122.989 E9.77648
G1 X86.837 Y122.581 E9.80441
G1 X87.005 Y121.991 E9.84522
G1 X87.219 Y121.354 E9.88992
G1 X87.448 Y120.769 E9.93171
G1 X87.704 Y120.191 E9.97376
G1 X87.829 Y119.933 E9.99283
G1 X88.123 Y119.375 E10.03479
G1 X88.455 Y118.811 E10.07832
G1 X88.7 Y118.433 E10.10828
G1 X89.099 Y117.872 E10.15408
G1 X88.856 Y117.583 E10.1792
G1 X88.419 Y116.938 E10.23102
G1 X88.05 Y116.252 E10.28284
G1 X87.753 Y115.531 E10.33471
G1 X87.531 Y114.783 E10.38661
G1 X87.387 Y114.017 E10.43846
G1 X87.319 Y113 E10.50626
G1 X87.319 Y107 E10.90538
G0 F6000 X88.119 Y107
G1 F1200 X88.159 Y106.264 E10.95441
G1 X88.278 Y105.536 E11.00348
G1 X88.476 Y104.826 E11.05251
G1 X88.749 Y104.141 E11.10157
G1 X89.095 Y103.49 E11.15061
G1 X89.509 Y102.88 E11.19965
G1 X89.987 Y102.319 E11.24867
G1 X90.523 Y101.812 E11.29775
G1 X91.11 Y101.367 E11.34675
G1 X91.743 Y100.987 E11.39586
G1 X92.412 Y100.679 E11.44486
G1 X93.111 Y100.445 E11.49389
G1 X93.832 Y100.287 E11.54299
G1 X94.919 Y100.2 E11.61553
G1 X106.537 Y100.2 E12.38836
G1 X108.501 Y97.5 E12.61045
G1 X108.966 Y96.929 E12.65944
G1 X109.49 Y96.41 E12.7085
G1 X110.068 Y95.952 E12.75756
G1 X110.692 Y95.559 E12.80661
G1 X111.354 Y95.236 E12.85561
G1 X112.048 Y94.986 E12.90468
G1 X112.765 Y94.813 E12.95374
G1 X113.496 Y94.719 E13.00277
G1 X114 Y94.7 E13.03632
G1 X125.081 Y94.7 E13.77343
G1 X125.817 Y94.74 E13.82246
G1 X126.545 Y94.859 E13.87153
G1 X127.255 Y95.057 E13.92056
G1 X127.94 Y95.33 E13.96961
G1 X128.591 Y95.676 E14.01865
G1 X129.201 Y96.09 E14.0677
G1 X129.762 Y96.568 E14.11672
G1 X130.269 Y97.104 E14.1658
G1 X130.714 Y97.691 E14.2148
G1 X131.094 Y98.324 E14.26391
G1 X131.402 Y98.993 E14.3129
G1 X131.636 Y99.692 E14.36194
G1 X131.794 Y100.413 E14.41104
G1 X131.881 Y101.5 E14.48358
G1 X131.881 Y106.5 E14.81618
G1 X131.841 Y107.236 E14.86521
G1 X131.722 Y107.964 E14.91428
G1 X131.524 Y108.674 E14.96331
G1 X131.251 Y109.359 E15.01236
G1 X130.905 Y110.01 E15.0614
G1 X131.094 Y110.324 E15.08578
G1 X131.402 Y110.993 E15.13477
G1 X131.636 Y111.692 E15.18381
G1 X131.794 Y112.413 E15.23291
G1 X131.881 Y113.5 E15.30545
G1 X131.881 Y118.5 E15.63805
G1 X131.841 Y119.236 E15.68708
G1 X131.722 Y119.964 E15.73615
G1 X131.567 Y120.521 E15.77461
G1 X131.833 Y121.123 E15.81839
G1 X132.034 Y121.643 E15.85547
G1 X132.15 Y121.976 E15.87893
G1 X132.329 Y122.563 E15.91975
G1 X132.402 Y122.837 E15.93861
G1 X132.531 Y123.392 E15.97652
G1 X132.605 Y123.776 E16.00253
G1 X132.691 Y124.342 E16.04061
G1 X132.756 Y124.96 E16.08195
G1 X132.791 Y125.553 E16.12146
G1 X132.798 Y126.172 E16.16264
G1 X132.791 Y126.457 E16.18161
G1 X132.756 Y127.052 E16.22125
G1 X132.722 Y127.402 E16.24465
G1 X132.645 Y127.98 E16.28344
G1 X132.598 Y128.261 E16.30239
G1 X132.48 Y128.844 E16.34195
G1 X132.391 Y129.208 E16.36688
G1 X132.233 Y129.766 E16.40546
G1 X132.032 Y130.364 E16.44742
G1 X131.817 Y130.916 E16.48683
G1 X131.576 Y131.46 E16.52641
G1 X131.451 Y131.718 E16.54548
G1 X131.174 Y132.243 E16.58497
G1 X130.861 Y132.775 E16.62603
G1 X130.642 Y133.112 E16.65276
G1 X130.327 Y133.56 E16.68919
G1 X129.951 Y134.048 E16.73017
G1 X129.565 Y134.504 E16.76991
G1 X129.151 Y134.947 E16.81025
G1 X128.727 Y135.363 E16.84976
G1 X128.235 Y135.799 E16.89349
G1 X127.754 Y136.182 E16.93439
G1 X127.314 Y136.502 E16.97058
G1 X126.767 Y136.864 E17.01421
G1 X126.523 Y137.012 E17.0332
G1 X126.014 Y137.298 E17.07203
G1 X125.702 Y137.459 E17.09539
G1 X125.137 Y137.723 E17.13687
G1 X124.877 Y137.833 E17.15565
G1 X124.348 Y138.037 E17.19337
G1 X124.03 Y138.148 E17.21577
G1 X123.437 Y138.329 E17.25702
G1 X123.163 Y138.402 E17.27588
G1 X122.602 Y138.532 E17.31419
G1 X121.945 Y138.65 E17.35859
G1 X121.367 Y138.725 E17.39736
G1 X121.042 Y138.756 E17.41908
G1 X120.45 Y138.791 E17.45853
G1 X120 Y138.8 E17.48847
G1 X99.995 Y138.8 E18.8192
G1 X99.543 Y138.791 E18.84928
G1 X98.948 Y138.756 E18.88893
G1 X98.594 Y138.722 E18.91258
G1 X98.02 Y138.645 E18.95111
G1 X97.739 Y138.598 E18.97006
G1 X97.156 Y138.48 E19.00963
G1 X96.792 Y138.391 E19.03455
G1 X96.234 Y138.233 E19.07313
G1 X95.636 Y138.032 E19.1151
G1 X95.082 Y137.816 E19.15465
G1 X94.819 Y137.703 E19.17369
G1 X94.283 Y137.451 E19.21309
G1 X93.999 Y137.305 E19.23433
G1 X93.468 Y137.008 E19.2748
G1 X92.892 Y136.645 E19.32009
G1 X92.44 Y136.327 E19.35686
G1 X91.966 Y135.963 E19.39661
G1 X91.482 Y135.553 E19.43881
G1 X91.04 Y135.139 E19.47909
G1 X90.639 Y134.728 E19.51729
G1 X90.445 Y134.516 E19.5364
G1 X90.03 Y134.025 E19.57917
G1 X89.818 Y133.754 E19.60206
G1 X89.498 Y133.314 E19.63825
G1 X89.136 Y132.767 E19.68188
G1 X88.988 Y132.523 E19.70086
G1 X88.702 Y132.014 E19.7397
G1 X88.541 Y131.702 E19.76306
G1 X88.279 Y131.14 E19.8043
G1 X88.061 Y130.61 E19.84243
G1 X87.852 Y130.03 E19.88344
G1 X87.671 Y129.437 E19.92468
G1 X87.598 Y129.163 E19.94354
G1 X87.468 Y128.602 E19.98185
G1 X87.35 Y127.945 E20.02625
G1 X87.275 Y127.367 E20.06502
G1 X87.244 Y127.042 E20.08674
G1 X87.209 Y126.447 E20.12639
G1 X87.202 Y125.828 E20.16757
G1 X87.209 Y125.543 E20.18653
G1 X87.244 Y124.948 E20.22618
G1 X87.278 Y124.598 E20.24957
G1 X87.355 Y124.02 E20.28836
G1 X87.402 Y123.739 E20.30731
G1 X87.52 Y123.156 E20.34688
G1 X87.609 Y122.792 E20.3718
G1 X87.767 Y122.234 E20.41038
G1 X87.968 Y121.636 E20.45235
G1 X88.183 Y121.084 E20.49175
G1 X88.424 Y120.54 E20.53133
G1 X88.549 Y120.282 E20.5504
G1 X88.826 Y119.757 E20.58989
G1 X89.139 Y119.225 E20.63095
G1 X89.358 Y118.888 E20.65768
G1 X89.673 Y118.44 E20.69412
G1 X89.843 Y118.213 E20.71298
G1 X90.146 Y117.834 E20.74526
G1 X89.731 Y117.396 E20.7854
G1 X89.286 Y116.809 E20.83439
G1 X88.906 Y116.176 E20.88351
G1 X88.598 Y115.507 E20.9325
G1 X88.364 Y114.808 E20.98153
G1 X88.206 Y114.087 E21.03063
G1 X88.119 Y113 E21.10317
G1 X88.119 Y107 E21.50229
G0 F6000 X88.919 Y107
G1 F1200 X88.959 Y106.309 E21.54833
G1 X89.078 Y105.626 E21.59445
G1 X89.276 Y104.963 E21.64048
G1 X89.548 Y104.326 E21.68655
G1 X89.892 Y103.725 E21.73262
G1 X90.303 Y103.167 E21.77872
G1 X90.775 Y102.661 E21.82475
G1 X91.303 Y102.212 E21.87085
G1 X91.878 Y101.827 E21.91689
G1 X92.495 Y101.512 E21.96297
G1 X93.143 Y101.269 E22.009
G1 X93.816 Y101.102 E22.05513
G1 X94.502 Y101.014 E22.10114
G1 X94.919 Y101 E22.12889
G1 X106.945 Y101 E22.92886
G1 X109.148 Y97.971 E23.17801
G1 X109.587 Y97.435 E23.2241
G1 X110.084 Y96.954 E23.27011
G1 X110.634 Y96.533 E23.31618
G1 X111.229 Y96.178 E23.36227
G1 X111.861 Y95.894 E23.40836
G1 X112.521 Y95.685 E23.45441
G1 X113.201 Y95.553 E23.50049
G1 X114 Y95.5 E23.55376
G1 X125.081 Y95.5 E24.29087
G1 X125.772 Y95.54 E24.33691
G1 X126.455 Y95.659 E24.38303
G1 X127.118 Y95.857 E24.42905
G1 X127.755 Y96.129 E24.47513
G1 X128.356 Y96.473 E24.52119
G1 X128.914 Y96.884 E24.56729
G1 X129.42 Y97.356 E24.61332
G1 X129.869 Y97.884 E24.65943
G1 X130.254 Y98.459 E24.70546
G1 X130.569 Y99.076 E24.75154
G1 X130.812 Y99.724 E24.79758
G1 X130.979 Y100.397 E24.8437
G1 X131.067 Y101.083 E24.88971
G1 X131.081 Y101.5 E24.91747
G1 X131.081 Y106.5 E25.25007
G1 X131.041 Y107.191 E25.29611
G1 X130.922 Y107.874 E25.34223
G1 X130.724 Y108.537 E25.38826
G1 X130.452 Y109.174 E25.43433
G1 X130.108 Y109.775 E25.48039
G1 X129.945 Y109.997 E25.49872
G1 X130.254 Y110.459 E25.53569
G1 X130.569 Y111.076 E25.58177
G1 X130.812 Y111.724 E25.62781
G1 X130.979 Y112.397 E25.67393
G1 X131.067 Y113.083 E25.71994
G1 X131.081 Y113.5 E25.74769
G1 X131.081 Y118.5 E26.0803
G1 X131.041 Y119.191 E26.12634
G1 X130.922 Y119.874 E26.17246
G1 X130.709 Y120.588 E26.22202
G1 X130.986 Y121.175 E26.2652
G1 X131.185 Y121.657 E26.29988
G1 X131.388 Y122.219 E26.33963
G1 X131.556 Y122.769 E26.37789
G1 X131.629 Y123.043 E26.39675
G1 X131.75 Y123.565 E26.43239
G1 X131.861 Y124.187 E26.47442
G1 X131.93 Y124.721 E26.51024
G1 X131.958 Y125.015 E26.52989
G1 X131.991 Y125.573 E26.56707
G1 X131.998 Y126.152 E26.60559
G1 X131.978 Y126.713 E26.64293
G1 X131.928 Y127.304 E26.68238
G1 X131.856 Y127.848 E26.71889
G1 X131.809 Y128.129 E26.73784
G1 X131.698 Y128.676 E26.77497
G1 X131.545 Y129.273 E26.81596
G1 X131.384 Y129.794 E26.85224
G1 X131.183 Y130.35 E26.89156
G1 X130.97 Y130.861 E26.92839
G1 X130.731 Y131.369 E26.96574
G1 X130.47 Y131.862 E27.00284
G1 X130.177 Y132.36 E27.04128
G1 X129.984 Y132.658 E27.06489
G1 X129.687 Y133.081 E27.09928
G1 X129.335 Y133.538 E27.13765
G1 X128.973 Y133.966 E27.17494
G1 X128.586 Y134.382 E27.21273
G1 X128.38 Y134.588 E27.23211
G1 X127.976 Y134.965 E27.26887
G1 X127.507 Y135.361 E27.3097
G1 X127.05 Y135.708 E27.34787
G1 X126.626 Y136.003 E27.38223
G1 X126.108 Y136.328 E27.42291
G1 X125.629 Y136.597 E27.45945
G1 X125.095 Y136.864 E27.49917
G1 X124.565 Y137.096 E27.53765
G1 X124.067 Y137.288 E27.57316
G1 X123.786 Y137.386 E27.59295
G1 X123.231 Y137.556 E27.63156
G1 X122.957 Y137.629 E27.65043
G1 X122.429 Y137.751 E27.68647
G1 X121.816 Y137.861 E27.7279
G1 X121.272 Y137.931 E27.76439
G1 X120.985 Y137.958 E27.78356
G1 X120.43 Y137.991 E27.82055
G1 X120 Y138 E27.84916
G1 X99.995 Y138 E29.1799
G1 X99.563 Y137.991 E29.20864
G1 X99.005 Y137.958 E29.24582
G1 X98.692 Y137.928 E29.26674
G1 X98.152 Y137.856 E29.30298
G1 X97.871 Y137.809 E29.32193
G1 X97.324 Y137.698 E29.35906
G1 X96.727 Y137.545 E29.40005
G1 X96.206 Y137.384 E29.43633
G1 X95.65 Y137.183 E29.47566
G1 X95.134 Y136.968 E29.51284
G1 X94.631 Y136.731 E29.54983
G1 X94.129 Y136.465 E29.58762
G1 X93.639 Y136.176 E29.62546
G1 X93.346 Y135.986 E29.64869
G1 X92.919 Y135.687 E29.68337
G1 X92.692 Y135.517 E29.70223
G1 X92.254 Y135.164 E29.73965
G1 X92.021 Y134.962 E29.76016
G1 X91.607 Y134.574 E29.79791
G1 X91.23 Y134.188 E29.8338
G1 X90.829 Y133.737 E29.87394
G1 X90.461 Y133.278 E29.91308
G1 X90.292 Y133.05 E29.93196
G1 X89.997 Y132.626 E29.96632
G1 X89.672 Y132.108 E30.007
G1 X89.403 Y131.629 E30.04354
G1 X89.261 Y131.354 E30.06413
G1 X89.015 Y130.828 E30.10275
G1 X88.904 Y130.566 E30.12168
G1 X88.71 Y130.062 E30.15761
G1 X88.614 Y129.786 E30.17704
G1 X88.444 Y129.231 E30.21566
G1 X88.371 Y128.957 E30.23452
G1 X88.249 Y128.429 E30.27057
G1 X88.139 Y127.816 E30.312
G1 X88.069 Y127.272 E30.34848
G1 X88.042 Y126.985 E30.36766
G1 X88.009 Y126.427 E30.40484
G1 X88.002 Y125.848 E30.44336
G1 X88.022 Y125.287 E30.4807
G1 X88.072 Y124.696 E30.52015
G1 X88.144 Y124.152 E30.55666
G1 X88.191 Y123.871 E30.57561
G1 X88.302 Y123.324 E30.61274
G1 X88.455 Y122.727 E30.65373
G1 X88.616 Y122.206 E30.69001
G1 X88.817 Y121.65 E30.72933
G1 X89.03 Y121.139 E30.76616
G1 X89.269 Y120.631 E30.80351
G1 X89.53 Y120.138 E30.84061
G1 X89.823 Y119.64 E30.87905
G1 X90.016 Y119.342 E30.90267
G1 X90.313 Y118.919 E30.93705
G1 X90.483 Y118.692 E30.95591
