;FLAVOR:Marlin
;TIME:9157
;Filament used: 13.663m
;Layer height: 0.2
;MINX:69.9
;MINY:69.9
;MINZ:0.2
;MAXX:150.1
;MAXY:150.1
;MAXZ:66.4
;ZOFFSETPROCESSED
;Generated with Cura_SteamEngine main
M140 S60
M105
M190 S60
M104 S210
M105
M109 S210
M82 ;absolute extrusion mode
; Ender 3 Custom Start G-code
G92 E0 ; Reset Extruder
G28G29 ; Home all axes
G1 Z2.0 F3000 ; Move Z Axis up little to prevent scratching of Heat Bed
G1 X0.1 Y20 Z0.3 F5000.0 ; Move to start position
G1 X0.1 Y200.0 Z0.3 F1500.0 E15 ; Draw the first line
G1 X0.4 Y200.0 Z0.3 F5000.0 ; Move to side a little
G1 X0.4 Y20 Z0.3 F1500.0 E30 ; Draw the second line
G92 E0 ; Reset Extruder
G1 Z2.0 F3000 ; Move Z Axis up little to prevent scratching of Heat Bed
G1 X5 Y20 Z0.3 F5000.0 ; Move over to prevent blob squish
G92 E0
G92 E0
G1 F4200 E-11
;LAYER_COUNT:331
;LAYER:0
M107
G1 F600 Z0.2 ;adjusted by z offset
G92 Z0.4 ;consider this the original z before offset
G0 F6000 X72.32 Y71.939 Z0.4
G1 F600 Z0.4
G0 F6000 X69.9 Y77.5
;TYPE:SKIRT
G1 F600 Z0.2
G1 F4200 E0
G1 F1200 X69.94 Y76.722 E0.05182
G1 X70.059 Y75.951 E0.10372
G1 X70.257 Y75.197 E0.15557
G1 X70.531 Y74.468 E0.20738
G1 X70.878 Y73.77 E0.25923
G1 X71.295 Y73.111 E0.31111
G1 X71.778 Y72.499 E0.36297
G1 X72.32 Y71.939 E0.41481
G1 X72.917 Y71.437 E0.4667
G1 X73.562 Y71 E0.51852
G1 X74.248 Y70.631 E0.57034
G1 X74.969 Y70.334 E0.62221
G1 X75.717 Y70.112 E0.67411
G1 X76.483 Y69.968 E0.72596
G1 X77.5 Y69.9 E0.79376
G1 X142.5 Y69.9 E5.11758
G1 X143.278 Y69.94 E5.1694
G1 X144.049 Y70.059 E5.22129
G1 X144.803 Y70.257 E5.27315
G1 X145.532 Y70.531 E5.32496
G1 X146.23 Y70.878 E5.37681
G1 X146.889 Y71.295 E5.42868
G1 X147.501 Y71.778 E5.48054
G1 X148.061 Y72.32 E5.53239
G1 X148.563 Y72.917 E5.58427
G1 X149 Y73.562 E5.6361
G1 X149.369 Y74.248 E5.68791
G1 X149.666 Y74.969 E5.73979
G1 X149.888 Y75.717 E5.79169
G1 X150.032 Y76.483 E5.84353
G1 X150.1 Y77.5 E5.91134
G1 X150.1 Y142.5 E10.23515
G1 X150.06 Y143.278 E10.28698
G1 X149.941 Y144.049 E10.33887
G1 X149.743 Y144.803 E10.39073
G1 X149.469 Y145.532 E10.44253
G1 X149.122 Y146.23 E10.49438
G1 X148.705 Y146.889 E10.54626
G1 X148.222 Y147.501 E10.59812
G1 X147.68 Y148.061 E10.64996
G1 X147.083 Y148.563 E10.70185
G1 X146.438 Y149 E10.75368
G1 X145.752 Y149.369 E10.80549
G1 X145.031 Y149.666 E10.85736
G1 X144.283 Y149.888 E10.90926
G1 X143.517 Y150.032 E10.96111
G1 X142.5 Y150.1 E11.02891
G1 X77.5 Y150.1 E15.35273
G1 X76.722 Y150.06 E15.40455
G1 X75.951 Y149.941 E15.45645
G1 X75.197 Y149.743 E15.5083
G1 X74.468 Y149.469 E15.56011
G1 X73.77 Y149.122 E15.61196
G1 X73.111 Y148.705 E15.66384
G1 X72.499 Y148.222 E15.7157
G1 X71.939 Y147.68 E15.76754
G1 X71.437 Y147.083 E15.81943
G1 X71 Y146.438 E15.87125
G1 X70.631 Y145.752 E15.92307
G1 X70.334 Y145.031 E15.97494
G1 X70.112 Y144.283 E16.02684
G1 X69.968 Y143.517 E16.07869
G1 X69.9 Y142.5 E16.14649
G1 X69.9 Y77.5 E20.47031
G0 F6000 X70.7 Y77.5
G1 F1200 X70.74 Y76.764 E20.51934
G1 X70.859 Y76.036 E20.56841
G1 X71.057 Y75.326 E20.61744
G1 X71.33 Y74.641 E20.66649
G1 X71.676 Y73.99 E20.71553
G1 X72.09 Y73.38 E20.76457
G1 X72.568 Y72.819 E20.8136
G1 X73.104 Y72.312 E20.86268
G1 X73.691 Y71.867 E20.91168
G1 X74.324 Y71.487 E20.96079
G1 X74.993 Y71.179 E21.00978
G1 X75.692 Y70.945 E21.05882
G1 X76.413 Y70.787 E21.10792
G1 X77.5 Y70.7 E21.18046
G1 X142.5 Y70.7 E25.50427
G1 X143.236 Y70.74 E25.5533
G1 X143.964 Y70.859 E25.60237
G1 X144.674 Y71.057 E25.6514
G1 X145.359 Y71.33 E25.70046
G1 X146.01 Y71.676 E25.7495
G1 X146.62 Y72.09 E25.79854
G1 X147.181 Y72.568 E25.84756
G1 X147.688 Y73.104 E25.89664
G1 X148.133 Y73.691 E25.94564
G1 X148.513 Y74.324 E25.99475
G1 X148.821 Y74.993 E26.04375
G1 X149.055 Y75.692 E26.09278
G1 X149.213 Y76.413 E26.14188
G1 X149.3 Y77.5 E26.21442
G1 X149.3 Y142.5 E30.53824
G1 X149.26 Y143.236 E30.58727
G1 X149.141 Y143.964 E30.63634
G1 X148.943 Y144.674 E30.68537
G1 X148.67 Y145.359 E30.73442
G1 X148.324 Y146.01 E30.78346
G1 X147.91 Y146.62 E30.8325
G1 X147.432 Y147.181 E30.88153
G1 X146.896 Y147.688 E30.93061
G1 X146.309 Y148.133 E30.97961
G1 X145.676 Y148.513 E31.02872
G1 X145.007 Y148.821 E31.07771
G1 X144.308 Y149.055 E31.12674
G1 X143.587 Y149.213 E31.17584
G1 X142.5 Y149.3 E31.24838
G1 X77.5 Y149.3 E35.5722
G1 X76.764 Y149.26 E35.62123
G1 X76.036 Y149.141 E35.6703
G1 X75.326 Y148.943 E35.71933
G1 X74.641 Y148.67 E35.76838
G1 X73.99 Y148.324 E35.81743
G1 X73.38 Y147.91 E35.86647
G1 X72.819 Y147.432 E35.91549
G1 X72.312 Y146.896 E35.96457
G1 X71.867 Y146.309 E36.01357
G1 X71.487 Y145.676 E36.06268
G1 X71.179 Y145.007 E36.11167
G1 X70.945 Y144.308 E36.16071
G1 X70.787 Y143.587 E36.20981
G1 X70.7 Y142.5 E36.28235
G1 X70.7 Y77.5 E40.60616
G0 F6000 X71.5 Y77.5
G1 F1200 X71.54 Y76.809 E40.65221
G1 X71.659 Y76.126 E40.69832
G1 X71.857 Y75.463 E40.74435
G1 X72.129 Y74.826 E40.79043
G1 X72.473 Y74.225 E40.83649
G1 X72.884 Y73.667 E40.88259
G1 X73.356 Y73.161 E40.92862
G1 X73.884 Y72.712 E40.97473
G1 X74.459 Y72.327 E41.02076
G1 X75.076 Y72.012 E41.06684
G1 X75.724 Y71.769 E41.11288
G1 X76.397 Y71.602 E41.159
G1 X77.083 Y71.514 E41.20501
G1 X77.5 Y71.5 E41.23276
G1 X142.5 Y71.5 E45.55658
G1 X143.191 Y71.54 E45.60262
G1 X143.874 Y71.659 E45.64874
G1 X144.537 Y71.857 E45.69477
G1 X145.174 Y72.129 E45.74084
G1 X145.775 Y72.473 E45.78691
G1 X146.333 Y72.884 E45.83301
G1 X146.839 Y73.356 E45.87904
G1 X147.288 Y73.884 E45.92514
G1 X147.673 Y74.459 E45.97117
G1 X147.988 Y75.076 E46.01726
G1 X148.231 Y75.724 E46.06329
G1 X148.398 Y76.397 E46.10942
G1 X148.486 Y77.083 E46.15543
G1 X148.5 Y77.5 E46.18318
G1 X148.5 Y142.5 E50.507
G1 X148.46 Y143.191 E50.55304
G1 X148.341 Y143.874 E50.59916
G1 X148.143 Y144.537 E50.64519
G1 X147.871 Y145.174 E50.69126
G1 X147.527 Y145.775 E50.73733
G1 X147.116 Y146.333 E50.78343
G1 X146.644 Y146.839 E50.82946
G1 X146.116 Y147.288 E50.87556
G1 X145.541 Y147.673 E50.92159
G1 X144.924 Y147.988 E50.96767
G1 X144.276 Y148.231 E51.01371
G1 X143.603 Y148.398 E51.05984
G1 X142.917 Y148.486 E51.10584
G1 X142.5 Y148.5 E51.1336
G1 X77.5 Y148.5 E55.45742
G1 X76.809 Y148.46 E55.50346
G1 X76.126 Y148.341 E55.54958
G1 X75.463 Y148.143 E55.5956
G1 X74.826 Y147.871 E55.64168
G1 X74.225 Y147.527 E55.68774
G1 X73.667 Y147.116 E55.73384
G1 X73.161 Y146.644 E55.77987
G1 X72.712 Y146.116 E55.82598
G1 X72.327 Y145.541 E55.87201
G1 X72.012 Y144.924 E55.91809
G1 X71.769 Y144.276 E55.96413
G1 X71.602 Y143.603 E56.01025
G1 X71.514 Y142.917 E56.05626
G1 X71.5 Y142.5 E56.08401
G1 X71.5 Y77.5 E60.40783
G0 F6000 X72.3 Y77.5
G1 F1200 X72.34 Y76.857 E60.45069
G1 X72.459 Y76.223 E60.4936
G1 X72.656 Y75.609 E60.53649
G1 X72.927 Y75.024 E60.57938
G1 X73.269 Y74.477 E60.62229
G1 X73.675 Y73.977 E60.66514
G1 X74.14 Y73.531 E60.708
G1 X74.657 Y73.146 E60.75088
G1 X75.218 Y72.827 E60.79381
G1 X75.814 Y72.581 E60.8367
G1 X76.435 Y72.41 E60.87954
G1 X77.073 Y72.318 E60.92242
G1 X77.5 Y72.3 E60.95085
G1 X142.5 Y72.3 E65.27467
G1 X143.143 Y72.34 E65.31752
G1 X143.777 Y72.459 E65.36043
G1 X144.391 Y72.656 E65.40333
G1 X144.976 Y72.927 E65.44621
G1 X145.523 Y73.269 E65.48913
G1 X146.023 Y73.675 E65.53197
G1 X146.469 Y74.14 E65.57483
G1 X146.854 Y74.657 E65.61771
G1 X147.173 Y75.218 E65.66064
G1 X147.419 Y75.814 E65.70353
G1 X147.59 Y76.435 E65.74638
G1 X147.682 Y77.073 E65.78926
G1 X147.7 Y77.5 E65.81769
G1 X147.7 Y142.5 E70.1415
G1 X147.66 Y143.143 E70.18436
G1 X147.541 Y143.777 E70.22727
G1 X147.344 Y144.391 E70.27016
G1 X147.073 Y144.976 E70.31305
G1 X146.731 Y145.523 E70.35596
G1 X146.325 Y146.023 E70.39881
G1 X145.86 Y146.469 E70.44167
G1 X145.343 Y146.854 E70.48455
G1 X144.782 Y147.173 E70.52748
G1 X144.186 Y147.419 E70.57037
G1 X143.565 Y147.59 E70.61321
G1 X142.927 Y147.682 E70.65609
G1 X142.5 Y147.7 E70.68452
G1 X77.5 Y147.7 E75.00834
G1 X76.857 Y147.66 E75.05119
G1 X76.223 Y147.541 E75.0941
G1 X75.609 Y147.344 E75.137
G1 X75.024 Y147.073 E75.17989
G1 X74.477 Y146.731 E75.2228
G1 X73.977 Y146.325 E75.26564
G1 X73.531 Y145.86 E75.3085
G1 X73.146 Y145.343 E75.35138
G1 X72.827 Y144.782 E75.39431
G1 X72.581 Y144.186 E75.4372
G1 X72.41 Y143.565 E75.48005
G1 X72.318 Y142.927 E75.52293
G1 X72.3 Y142.5 E75.55136
G1 X72.3 Y77.5 E79.87517
G0 F6000 X73.1 Y77.5
G1 F1200 X73.14 Y76.908 E79.91464
G1 X73.259 Y76.328 E79.95403
G1 X73.455 Y75.768 E79.9935
G1 X73.725 Y75.24 E80.03295
G1 X74.063 Y74.753 E80.07238
G1 X74.464 Y74.316 E80.11183
G1 X74.919 Y73.936 E80.15127
G1 X75.422 Y73.622 E80.19071
G1 X75.962 Y73.377 E80.23015
G1 X76.531 Y73.208 E80.26964
G1 X77.116 Y73.117 E80.30902
G1 X77.5 Y73.1 E80.33459
G1 X142.5 Y73.1 E84.65841
G1 X143.092 Y73.14 E84.69788
G1 X143.672 Y73.259 E84.73726
G1 X144.232 Y73.455 E84.77673
G1 X144.76 Y73.725 E84.81618
G1 X145.247 Y74.063 E84.85561
G1 X145.684 Y74.464 E84.89507
G1 X146.064 Y74.919 E84.9345
G1 X146.378 Y75.422 E84.97394
G1 X146.623 Y75.962 E85.01339
G1 X146.792 Y76.531 E85.05287
G1 X146.883 Y77.116 E85.09226
G1 X146.9 Y77.5 E85.11782
G1 X146.9 Y142.5 E89.44164
G1 X146.86 Y143.092 E89.48111
G1 X146.741 Y143.672 E89.5205
G1 X146.545 Y144.232 E89.55996
G1 X146.275 Y144.76 E89.59941
G1 X145.937 Y145.247 E89.63885
G1 X145.536 Y145.684 E89.6783
G1 X145.081 Y146.064 E89.71773
G1 X144.578 Y146.378 E89.75718
G1 X144.038 Y146.623 E89.79662
G1 X143.469 Y146.792 E89.83611
G1 X142.884 Y146.883 E89.87549
G1 X142.5 Y146.9 E89.90106
G1 X77.5 Y146.9 E94.22487
G1 X76.908 Y146.86 E94.26434
G1 X76.328 Y146.741 E94.30373
G1 X75.768 Y146.545 E94.3432
G1 X75.24 Y146.275 E94.38265
G1 X74.753 Y145.937 E94.42208
G1 X74.316 Y145.536 E94.46153
G1 X73.936 Y145.081 E94.50097
G1 X73.622 Y144.578 E94.54041
G1 X73.377 Y144.038 E94.57986
G1 X73.208 Y143.469 E94.61934
G1 X73.117 Y142.884 E94.65872
G1 X73.1 Y142.5 E94.68429
G1 X73.1 Y77.5 E99.00811
G0 F6000 X73.9 Y77.5
G1 F1200 X73.94 Y76.965 E99.0438
G1 X74.059 Y76.442 E99.07948
G1 X74.254 Y75.943 E99.11511
G1 X74.522 Y75.478 E99.15082
G1 X74.855 Y75.058 E99.18647
G1 X75.247 Y74.692 E99.22214
G1 X75.689 Y74.389 E99.25779
G1 X76.172 Y74.154 E99.29352
G1 X76.683 Y73.994 E99.32914
G1 X77.213 Y73.911 E99.36483
G1 X77.5 Y73.9 E99.38393
G1 X142.5 Y73.9 E103.70775
G1 X143.035 Y73.94 E103.74344
G1 X143.558 Y74.059 E103.77912
G1 X144.057 Y74.254 E103.81475
G1 X144.522 Y74.522 E103.85046
G1 X144.942 Y74.855 E103.88611
G1 X145.308 Y75.247 E103.92179
G1 X145.611 Y75.689 E103.95743
G1 X145.846 Y76.172 E103.99316
G1 X146.006 Y76.683 E104.02878
G1 X146.089 Y77.213 E104.06447
G1 X146.1 Y77.5 E104.08357
G1 X146.1 Y142.5 E108.40739
G1 X146.06 Y143.035 E108.44308
G1 X145.941 Y143.558 E108.47876
G1 X145.746 Y144.057 E108.5144
G1 X145.478 Y144.522 E108.5501
G1 X145.145 Y144.942 E108.58575
G1 X144.753 Y145.308 E108.62143
G1 X144.311 Y145.611 E108.65707
G1 X143.828 Y145.846 E108.6928
G1 X143.317 Y146.006 E108.72842
G1 X142.787 Y146.089 E108.76411
G1 X142.5 Y146.1 E108.78321
G1 X77.5 Y146.1 E113.10703
G1 X76.965 Y146.06 E113.14272
G1 X76.442 Y145.941 E113.1784
G1 X75.943 Y145.746 E113.21404
G1 X75.478 Y145.478 E113.24974
G1 X75.058 Y145.145 E113.28539
G1 X74.692 Y144.753 E113.32107
G1 X74.389 Y144.311 E113.35672
G1 X74.154 Y143.828 E113.39245
G1 X73.994 Y143.317 E113.42806
G1 X73.911 Y142.787 E113.46375
G1 X73.9 Y142.5 E113.48286
G1 X73.9 Y77.5 E117.80667
G0 F6000 X74.7 Y77.5
G1 F1200 X74.74 Y77.029 E117.83812
G1 X74.859 Y76.571 E117.86959
G1 X75.053 Y76.14 E117.90104
G1 X75.316 Y75.747 E117.93249
G1 X75.642 Y75.405 E117.96392
G1 X76.021 Y75.122 E117.99539
G1 X76.443 Y74.907 E118.02689
G1 X76.894 Y74.766 E118.05832
G1 X77.5 Y74.7 E118.09887
G1 X142.5 Y74.7 E122.42269
G1 X142.971 Y74.74 E122.45413
G1 X143.429 Y74.859 E122.48561
G1 X143.86 Y75.053 E122.51705
G1 X144.253 Y75.316 E122.54851
G1 X144.595 Y75.642 E122.57994
G1 X144.878 Y76.021 E122.6114
G1 X145.093 Y76.443 E122.64291
G1 X145.234 Y76.894 E122.67434
G1 X145.3 Y77.5 E122.71489
G1 X145.3 Y142.5 E127.03871
G1 X145.26 Y142.971 E127.07015
G1 X145.141 Y143.429 E127.10163
G1 X144.947 Y143.86 E127.13307
G1 X144.684 Y144.253 E127.16453
G1 X144.358 Y144.595 E127.19596
G1 X143.979 Y144.878 E127.22742
G1 X143.557 Y145.093 E127.25892
G1 X143.106 Y145.234 E127.29036
G1 X142.5 Y145.3 E127.33091
G1 X77.5 Y145.3 E131.65472
G1 X77.029 Y145.26 E131.68617
G1 X76.571 Y145.141 E131.71765
G1 X76.14 Y144.947 E131.74909
G1 X75.747 Y144.684 E131.78054
G1 X75.405 Y144.358 E131.81197
G1 X75.122 Y143.979 E131.84344
G1 X74.907 Y143.557 E131.87494
G1 X74.766 Y143.106 E131.90637
G1 X74.7 Y142.5 E131.94692
G1 X74.7 Y77.5 E136.27074
G0 F6000 X75.5 Y77.5
G1 F1200 X75.54 Y77.102 E136.29735
G1 X75.658 Y76.721 E136.32388
G1 X75.85 Y76.37 E136.3505
G1 X76.107 Y76.065 E136.37703
G1 X76.42 Y75.817 E136.40359
G1 X76.776 Y75.636 E136.43016
G1 X77.161 Y75.529 E136.45674
G1 X77.5 Y75.5 E136.47937
G1 X142.5 Y75.5 E140.80319
G1 X142.898 Y75.54 E140.8298
G1 X143.279 Y75.658 E140.85633
G1 X143.63 Y75.85 E140.88294
G1 X143.935 Y76.107 E140.90947
G1 X144.183 Y76.42 E140.93604
G1 X144.364 Y76.776 E140.9626
G1 X144.471 Y77.161 E140.98919
G1 X144.5 Y77.5 E141.01182
G1 X144.5 Y142.5 E145.33564
G1 X144.46 Y142.898 E145.36224
G1 X144.342 Y143.279 E145.38878
G1 X144.15 Y143.63 E145.41539
G1 X143.893 Y143.935 E145.44192
G1 X143.58 Y144.183 E145.46848
G1 X143.224 Y144.364 E145.49505
G1 X142.839 Y144.471 E145.52163
G1 X142.5 Y144.5 E145.54426
G1 X77.5 Y144.5 E149.86808
G1 X77.102 Y144.46 E149.89469
G1 X76.721 Y144.342 E149.92122
G1 X76.37 Y144.15 E149.94784
G1 X76.065 Y143.893 E149.97437
G1 X75.817 Y143.58 E150.00093
G1 X75.636 Y143.224 E150.0275
G1 X75.529 Y142.839 E150.05408
G1 X75.5 Y142.5 E150.07671
G1 X75.5 Y77.5 E154.40053
G0 F6000 X76.3 Y77.5
G1 F1200 X76.34 Y77.193 E154.42112
G1 X76.457 Y76.907 E154.44168
G1 X76.643 Y76.66 E154.46225
G1 X76.886 Y76.469 E154.48281
G1 X77.17 Y76.346 E154.50339
G1 X77.5 Y76.3 E154.52556
G1 X142.5 Y76.3 E158.84938
G1 X142.807 Y76.34 E158.86997
G1 X143.093 Y76.457 E158.89052
G1 X143.34 Y76.643 E158.91109
G1 X143.531 Y76.886 E158.93165
G1 X143.654 Y77.17 E158.95224
G1 X143.7 Y77.5 E158.9744
G1 X143.7 Y142.5 E163.29822
G1 X143.66 Y142.807 E163.31882
G1 X143.543 Y143.093 E163.33937
G1 X143.357 Y143.34 E163.35994
G1 X143.114 Y143.531 E163.3805
G1 X142.83 Y143.654 E163.40109
G1 X142.5 Y143.7 E163.42325
G1 X77.5 Y143.7 E167.74707
G1 X77.193 Y143.66 E167.76766
G1 X76.907 Y143.543 E167.78822
G1 X76.66 Y143.357 E167.80879
G1 X76.469 Y143.114 E167.82935
G1 X76.346 Y142.83 E167.84993
G1 X76.3 Y142.5 E167.8721
G1 X76.3 Y77.5 E172.19592
G0 F6000 X77.1 Y77.5
G1 F1200 X77.14 Y77.327 E172.20773
G1 X77.25 Y77.188 E172.21952
G1 X77.431 Y77.1 E172.23291
G1 X142.5 Y77.1 E176.56131
G1 X142.673 Y77.14 E176.57312
G1 X142.812 Y77.25 E176.58492
G1 X142.9 Y77.431 E176.5983
G1 X142.9 Y142.5 E180.92671
G1 X142.861 Y142.673 E180.93851
G1 X142.75 Y142.812 E180.95034
G1 X142.569 Y142.9 E180.96373
G1 X77.5 Y142.9 E185.29214
G1 X77.327 Y142.861 E185.30393
G1 X77.188 Y142.75 E185.31577
G1 X77.1 Y142.569 E185.32915
G1 X77.1 Y77.5 E189.65756
G1 F4200 E178.65756
G1 F600 Z0.4
;MESH:motor_mount.stl
G0 F6000 X83.259 Y86.694 Z0.4
;TYPE:WALL-INNER
G1 F600 Z0.2
G1 F4200 E189.65756
G1 F1200 X82.791 Y86.625 E189.68903
G1 X82.33 Y86.482 E189.72114
G1 X81.897 Y86.275 E189.75306
G1 X81.5 Y86.005 E189.785
G1 X81.148 Y85.675 E189.8171
G1 X80.854 Y85.306 E189.84848
G1 X80.61 Y84.887 E189.88073
G1 X80.44 Y84.453 E189.91174
G1 X80.339 Y84.007 E189.94216
G1 X80.302 Y83.604 E189.96908
G1 X80.302 Y83.427 E189.98085
G1 X80.331 Y83.018 E190.00813
G1 X80.438 Y82.553 E190.03987
G1 X80.615 Y82.105 E190.07191
G1 X80.854 Y81.693 E190.10359
G1 X81.145 Y81.33 E190.13454
G1 X81.501 Y80.994 E190.16711
G1 X81.886 Y80.731 E190.19812
G1 X82.335 Y80.516 E190.23124
G1 X82.783 Y80.376 E190.26246
G1 X83.252 Y80.307 E190.29399
G1 X83.741 Y80.306 E190.32652
G1 X84.215 Y80.376 E190.35839
G1 X84.671 Y80.517 E190.39014
G1 X85.105 Y80.726 E190.42219
G1 X85.501 Y80.995 E190.45403
G1 X85.846 Y81.32 E190.48556
G1 X86.141 Y81.686 E190.51683
G1 X86.385 Y82.105 E190.54908
G1 X86.559 Y82.542 E190.58037
G1 X86.668 Y83.017 E190.61279
G1 X86.704 Y83.488 E190.64421
G1 X86.669 Y83.979 E190.67696
G1 X86.559 Y84.446 E190.70887
G1 X86.381 Y84.896 E190.74106
G1 X86.153 Y85.296 E190.77169
G1 X85.873 Y85.646 E190.80151
G1 X85.501 Y86.004 E190.83585
